X: 296
T: San guo diao
%%abc-version 2.0
%%abcx-abcm2ps-target-version 5.9.1 (29 Sep 2008)
%%abc-creator hum2abc beta
%%abcx-conversion-date 2013/10/02 07:52:29
%%abc-edited-by Helmut Schaffrath
%%humdrum-veritas 807842567
%%humdrum-veritas-data 971739778
%%continueall 1
%%barnumbers 0
L: 1/8
M: 2/4
K: F
A c d f [I:setbarnb 1]| 
c3f | 
d c A/ c/ D | 
F4 | 
D F z G/ G/ | 
A d c A | 
G A/ c/ A G | 
F4 | 
A d c A | 
A c A D | 
G/ G/ F/ G/ c E | 
D C/ D< E D/ | 
C4 |]  



